assets/img/braze_icons/save-01.svg

<svg fill="none" height="24" viewBox="0 0 24 24" width="24" xmlns="http://www.w3.org/2000/svg"><path clip-rule="evenodd" d="m15.8719 2.08299c-.3484-.08365-.7072-.08332-1.1141-.08294l-6.9991.00005c-.80497-.00001-1.46933-.00002-2.01052.0442-.5621.04592-1.07881.14448-1.56414.39178-.75265.38349-1.36457.99541-1.74806 1.74806-.2473.48534-.34586 1.00204-.39179 1.56414-.04421.54119-.0442 1.20554-.04419 2.01051v8.48261c-.00001.805-.00002 1.4693.04419 2.0105.04593.5621.14449 1.0788.39179 1.5642.38349.7526.99541 1.3645 1.74806 1.748.48533.2473 1.00204.3459 1.56414.3918.54118.0442 1.20554.0442 2.0105.0442h8.48262c.805 0 1.4693 0 2.0105-.0442.5621-.0459 1.0788-.1445 1.5642-.3918.7526-.3835 1.3645-.9954 1.748-1.748.2473-.4854.3459-1.0021.3918-1.5642.0442-.5412.0442-1.2055.0442-2.0105l.0001-6.99911c.0003-.4069.0007-.76565-.083-1.1141-.0735-.30611-.1947-.59874-.3592-.86716-.1872-.30554-.4411-.55898-.7291-.84643l-3.2433-3.24329c-.2875-.28798-.5409-.54189-.8464-.72913-.2684-.16448-.5611-.2857-.8672-.35919zm-.4669 1.94464c-.0883-.0212-.1937-.02763-.7305-.02763h-6.8745c-.29784 0-.56251.00009-.8.00176v2.39814c0 .56005 0 .84008.10899 1.05399.09588.18816.24886.34114.43702.43701.21391.109.49394.109 1.05399.109h6.8c.5601 0 .8401 0 1.054-.109.1882-.09587.3411-.24885.437-.43701.109-.21391.109-.49394.109-1.05399v-.98569l-.7698-.76985c-.3796-.37956-.4587-.44954-.5361-.497-.0895-.05483-.187-.09523-.2891-.11973zm-6.805 8.97227h6.8c.5601 0 .8401 0 1.054.109.1882.0959.3411.2488.437.437.109.2139.109.4939.109 1.054v5.4h-10v-5.4c0-.5601 0-.8401.10899-1.054.09588-.1882.24886-.3411.43702-.437.21391-.109.49394-.109 1.05399-.109z" fill="#801ed7" fill-rule="evenodd"/></svg>

<svg width="24" height="24" viewBox="0 0 24 24" fill="none" xmlns="http://www.w3.org/2000/svg">
<path fill-rule="evenodd" clip-rule="evenodd" d="M15.8719 2.08299C15.5235 1.99934 15.1647 1.99967 14.7578 2.00005L7.7587 2.0001C6.95373 2.00009 6.28937 2.00008 5.74818 2.0443C5.18608 2.09022 4.66937 2.18878 4.18404 2.43608C3.43139 2.81957 2.81947 3.43149 2.43598 4.18414C2.18868 4.66948 2.09012 5.18618 2.04419 5.74828C1.99998 6.28947 1.99999 6.95382 2 7.75879V16.2414C1.99999 17.0464 1.99998 17.7107 2.04419 18.2519C2.09012 18.814 2.18868 19.3307 2.43598 19.8161C2.81947 20.5687 3.43139 21.1806 4.18404 21.5641C4.66937 21.8114 5.18608 21.91 5.74818 21.9559C6.28936 22.0001 6.95372 22.0001 7.75868 22.0001H16.2413C17.0463 22.0001 17.7106 22.0001 18.2518 21.9559C18.8139 21.91 19.3306 21.8114 19.816 21.5641C20.5686 21.1806 21.1805 20.5687 21.564 19.8161C21.8113 19.3307 21.9099 18.814 21.9558 18.2519C22 17.7107 22 17.0464 22 16.2414L22.0001 9.24229C22.0004 8.83539 22.0008 8.47664 21.9171 8.12819C21.8436 7.82208 21.7224 7.52945 21.5579 7.26103C21.3707 6.95549 21.1168 6.70205 20.8288 6.4146L17.5855 3.17131C17.298 2.88333 17.0446 2.62942 16.7391 2.44218C16.4707 2.2777 16.178 2.15648 15.8719 2.08299ZM15.405 4.02763C15.3167 4.00643 15.2113 4 14.6745 4H7.8C7.50216 4 7.23749 4.00009 7 4.00176V6.3999C7 6.95995 7 7.23998 7.10899 7.45389C7.20487 7.64205 7.35785 7.79503 7.54601 7.8909C7.75992 7.9999 8.03995 7.9999 8.6 7.9999H15.4C15.9601 7.9999 16.2401 7.9999 16.454 7.8909C16.6422 7.79503 16.7951 7.64205 16.891 7.45389C17 7.23998 17 6.95995 17 6.3999V5.41421L16.2302 4.64436C15.8506 4.2648 15.7715 4.19482 15.6941 4.14736C15.6046 4.09253 15.5071 4.05213 15.405 4.02763ZM8.6 12.9999H15.4C15.9601 12.9999 16.2401 12.9999 16.454 13.1089C16.6422 13.2048 16.7951 13.3577 16.891 13.5459C17 13.7598 17 14.0398 17 14.5999V19.9999H7V14.5999C7 14.0398 7 13.7598 7.10899 13.5459C7.20487 13.3577 7.35785 13.2048 7.54601 13.1089C7.75992 12.9999 8.03995 12.9999 8.6 12.9999Z" fill="#801ED7"/>
</svg>
